src/images/dashboard.svg

<svg width="33" height="32" viewBox="0 0 33 32" fill="none" xmlns="http://www.w3.org/2000/svg">
<path fill-rule="evenodd" clip-rule="evenodd" d="M25.552 6.66667V9.33333H20.1903V6.66667H25.552ZM12.1479 6.66667V14.6667H6.78628V6.66667H12.1479ZM25.552 17.3333V25.3333H20.1903V17.3333H25.552ZM12.1479 22.6667V25.3333H6.78628V22.6667H12.1479ZM28.2328 4H17.5095V12H28.2328V4ZM14.8287 4H4.10547V17.3333H14.8287V4ZM28.2328 14.6667H17.5095V28H28.2328V14.6667ZM14.8287 20H4.10547V28H14.8287V20Z" fill="#020201"/>
</svg>

<svg width="33" height="32" viewBox="0 0 33 32" fill="none" xmlns="http://www.w3.org/2000/svg"><path fill-rule="evenodd" clip-rule="evenodd" d="M25.552 6.667v2.666H20.19V6.667h5.362zm-13.404 0v8H6.786v-8h5.362zm13.404 10.666v8H20.19v-8h5.362zm-13.404 5.334v2.666H6.786v-2.666h5.362zM28.233 4H17.509v8h10.724V4zM14.829 4H4.105v13.333H14.83V4zm13.404 10.667H17.509V28h10.724V14.667zM14.829 20H4.105v8H14.83v-8z" fill="#020201"/></svg>
